X:1    
T:Green Broom
F:http://www.folkinfo.org/songs
B:Songs of the West by S. Baring-Gould. 
S:
M:6/8     
L:1/8    
K:G
D|G F G (BA) G|F G A G2 A|
w:There was an old* man lived out in the wood, His
B A B d c B|A2 D D2 D|
w: trade was a-cut-ting of Broom, green Broome; He
B A B d c B|A G E D2 D|
w:had but one son with-out thrift, with-out good, Who
D c B A G A|G2 G G2 z|
w:lay in his bed till 'twas noon, bright noon.